!! 00000] TT[WS
!!!OTL: Hai wawa
!!!ARE: Asia, China,ÿShanxi Hequ
!! Ethnic Group: Han
!! WI, 213 (1)
!!!SCT: J0252
!!!YEM: Copyright 1995, estate of Helmut Schaffrath.
**kern
*ICvox
*Ivox
*M2/4
*k[b-]
*F:
{8dd
16dd
16ee
8ff
16a
16cc
=1
16dd
16ee
16dd
16cc
4dd
=2
16cc
16dd
8ff
16ff
16dd
16cc
16a
=3
8.g
16a
4g}
=4
{8ff
16ff
16dd
16ff
16dd
16cc
16a
=5
16g
16a
16cc
16a
16g
16f
16d
16c}
=6
{8f
4f
8cc
=7
8.a
16g
8e
8d
=8
4.c
8d
=9
2c}
==
!!!AGN: Xiaodiao. Fengsuge, Jiating shenghuo
!!!ONB: ESAC (Essen Associative Code) Database: CHINA
!!!AMT: simple duple
!!!AIN: vox
!!!EED: Helmut Schaffrath
!!!EEV: 1.0
*-
